{
  "compressionlevel": -1,
  "height": 15,
  "infinite": false,
  "layers": [
    {
      "data": [
        4, 4, 1, 1, 1, 1, 1, 1, 1, 1, 1, 1, 1, 1, 1, 1, 1, 1, 1, 1,
        4, 4, 1, 1, 1, 1, 1, 1, 1, 1, 1, 1, 1, 1, 1, 1, 1, 1, 1, 1,
        4, 4, 1, 1, 1, 2, 1, 1, 1, 1, 1, 1, 1, 1, 1, 1, 2, 1, 1, 1,
        4, 4, 4, 1, 1, 1, 1, 1, 1, 1, 1, 1, 1, 1, 1, 1, 1, 1, 1, 1,
        1, 4, 4, 1, 1, 1, 1, 1, 1, 1, 1, 3, 3, 3, 1, 1, 1, 1, 1, 1,
        1, 1, 4, 1, 1, 1, 1, 1, 1, 1, 3, 3, 3, 3, 3, 1, 1, 1, 1, 1,
        1, 1, 1, 1, 2, 1, 1, 1, 1, 3, 3, 3, 3, 3, 3, 3, 1, 1, 1, 1,
        1, 1, 1, 1, 1, 1, 1, 1, 1, 3, 3, 3, 3, 3, 3, 3, 1, 1, 1, 1,
        1, 1, 1, 1, 1, 1, 1, 2, 1, 3, 3, 3, 3, 3, 3, 3, 1, 1, 1, 1,
        1, 1, 1, 1, 1, 1, 1, 1, 1, 1, 3, 3, 3, 3, 3, 1, 1, 1, 1, 1,
        1, 1, 1, 2, 1, 1, 1, 1, 1, 1, 1, 3, 3, 3, 1, 1, 1, 1, 1, 1,
        1, 1, 1, 1, 1, 1, 1, 1, 1, 1, 1, 1, 1, 1, 1, 1, 1, 2, 1, 1,
        1, 1, 1, 1, 1, 1, 1, 1, 1, 1, 1, 1, 1, 1, 1, 1, 1, 1, 1, 1,
        1, 1, 1, 1, 1, 1, 2, 1, 1, 1, 1, 1, 1, 1, 1, 1, 1, 1, 1, 1,
        1, 1, 1, 1, 1, 1, 1, 1, 1, 1, 1, 1, 1, 1, 1, 1, 1, 1, 1, 1
      ],
      "height": 15,
      "id": 1,
      "name": "ground",
      "opacity": 1,
      "type": "tilelayer",
      "visible": true,
      "width": 20,
      "x": 0,
      "y": 0
    },
    {
      "data": [
        5, 5, 0, 0, 0, 0, 5, 0, 0, 0, 0, 5, 0, 0, 0, 5, 0, 0, 5, 5,
        5, 0, 0, 0, 5, 0, 0, 0, 0, 0, 0, 0, 0, 5, 0, 0, 0, 0, 0, 5,
        0, 0, 0, 0, 0, 0, 0, 0, 0, 0, 0, 0, 0, 0, 0, 0, 0, 0, 0, 5,
        0, 0, 0, 0, 0, 0, 0, 6, 0, 0, 0, 0, 0, 0, 0, 0, 0, 0, 6, 0,
        0, 0, 0, 5, 0, 0, 0, 0, 0, 0, 0, 0, 0, 0, 0, 0, 0, 0, 0, 0,
        5, 0, 0, 0, 0, 0, 0, 0, 0, 0, 0, 7, 7, 7, 0, 0, 0, 0, 0, 5,
        0, 0, 0, 0, 0, 0, 0, 0, 0, 0, 0, 7, 7, 7, 0, 0, 0, 0, 0, 0,
        0, 0, 0, 0, 6, 0, 0, 0, 0, 0, 0, 7, 8, 7, 0, 0, 0, 0, 0, 0,
        0, 0, 0, 0, 0, 0, 0, 0, 0, 0, 0, 0, 0, 0, 0, 0, 0, 0, 0, 0,
        0, 0, 0, 0, 0, 0, 0, 0, 0, 0, 0, 0, 0, 0, 0, 0, 0, 6, 0, 0,
        0, 0, 0, 0, 0, 5, 0, 0, 0, 0, 0, 0, 0, 0, 0, 0, 0, 0, 0, 0,
        5, 0, 5, 0, 0, 0, 0, 0, 0, 0, 0, 0, 0, 0, 5, 0, 0, 0, 0, 5,
        0, 0, 0, 0, 0, 0, 0, 6, 0, 0, 0, 0, 0, 0, 0, 0, 0, 0, 0, 0,
        0, 0, 0, 5, 0, 0, 0, 0, 0, 5, 0, 0, 0, 5, 0, 0, 0, 5, 0, 0,
        5, 5, 0, 0, 5, 0, 0, 5, 0, 0, 0, 5, 0, 0, 5, 0, 5, 0, 5, 5
      ],
      "height": 15,
      "id": 2,
      "name": "objects",
      "opacity": 1,
      "type": "tilelayer",
      "visible": true,
      "width": 20,
      "x": 0,
      "y": 0
    },
    {
      "draworder": "topdown",
      "id": 3,
      "name": "zones",
      "objects": [
        {
          "height": 16,
          "id": 1,
          "name": "temple",
          "properties": [
            { "name": "zoneType", "type": "string", "value": "temple" }
          ],
          "rotation": 0,
          "type": "InteractionZone",
          "visible": true,
          "width": 16,
          "x": 192,
          "y": 112
        }
      ],
      "opacity": 1,
      "type": "objectgroup",
      "visible": true,
      "x": 0,
      "y": 0
    },
    {
      "draworder": "topdown",
      "id": 4,
      "name": "spawns",
      "objects": [
        {
          "height": 16,
          "id": 2,
          "name": "player",
          "properties": [],
          "rotation": 0,
          "type": "SpawnPoint",
          "visible": true,
          "width": 16,
          "x": 80,
          "y": 176
        }
      ],
      "opacity": 1,
      "type": "objectgroup",
      "visible": true,
      "x": 0,
      "y": 0
    }
  ],
  "nextlayerid": 5,
  "nextobjectid": 3,
  "orientation": "orthogonal",
  "renderorder": "right-down",
  "tiledversion": "1.11.0",
  "tileheight": 16,
  "tilesets": [
    {
      "columns": 8,
      "firstgid": 1,
      "image": "../tiles/atlas.png",
      "imageheight": 128,
      "imagewidth": 128,
      "margin": 0,
      "name": "azaro-atlas",
      "spacing": 0,
      "tilecount": 64,
      "tileheight": 16,
      "tilewidth": 16,
      "tiles": [
        { "id": 3, "properties": [{ "name": "solid", "type": "bool", "value": true }] },
        { "id": 4, "properties": [{ "name": "solid", "type": "bool", "value": true }] },
        { "id": 5, "properties": [{ "name": "solid", "type": "bool", "value": true }] },
        { "id": 6, "properties": [{ "name": "solid", "type": "bool", "value": true }] }
      ]
    }
  ],
  "tilewidth": 16,
  "type": "map",
  "version": "1.10",
  "width": 20
}
